X:400
T: Thadelo Sullivan's
S: "Johnny O'Leary of Sliabh Luachra" (#190)
Z: B.Black
L: 1/8
M: 2/4
R: polka
Q: 275
K: A
AG/A/ Bc/B/|AB/A/ fA/f/|e/c/B e/c/B|c/B/A ec/B/|
A2 Bc/B/|AB/A/ fA/f/|e/c/B e/c/B|1 c/B/A Ac/B/ :|2\
c/B/A A2 ||
a>f ef|ec BA|Bc ef|ec B/c/B/A/|
a>f ef|ec BA|Bc e/f/e/c/|1 BA A2 :|2 BA Ac/B/||
